X:1
T:Title
%%score { 1 | 2 }
L:1/8
Q:1/4=106
M:4/4
K:F
V:1 treble nm="Grand Piano"
V:2 bass 
V:1
 [CFA]3 [DFB] [CFA]2 [B,EG]2 | [A,DF]3 [A,EG] [A,DF]2[K:bass] [G,^CE]2 | %2
w: G.~F.~Root * * *||
 [F,D]3[K:treble] [B,DE] [B,DF]2 [DGB]2 | [CFA]2 [CEG]2 [CFA]4 | [CFA]3 [DFB] [CFA]2 [B,EG]2 | %5
w: |||
 [A,DF]3 [A,EG] [A,DF]2[K:bass] [G,^CE]2 | [F,D]3[K:treble] [B,DE] [B,DF]2 [DGB]2 | %7
w: ||
 [CFA]2 [B,EG]2 F4 | c2 z2 d2 z2 | c2 A2 [EG]2 [DF]2 | [EG]3 [FA] [GB]2 [EG]2 | %11
w: ||||
 [CFA]2 [B,F]2 [CEG]4 | [CFA]3 [DFB] [CFA]2 [B,EG]2 | [A,DF]3 [A,EG] [A,DF]2[K:bass] [G,^CE]2 | %14
w: |||
 [F,D]3[K:treble] [B,DE] [B,DF]2 [DGB]2 | [CFA]2 [B,EG]2 [A,F]4 |] %16
w: ||
V:2
 F,3 F, F,2 C,2 | D,3 D, D,2 A,,2 | B,,3 B,, B,,2 G,,2 | C,2 C,2 F,4 | F,3 F, F,2 C,2 | %5
 D,3 D, D,2 A,,2 | B,,3 B,, B,,2 G,,2 | C,2 C,2 [F,A,]4 | [F,A,F]2 z2 [F,B,F]2 z2 | %9
 [F,A,F]2 [F,CF]2 [C,B,]2 [F,A,]2 | [C,C]3 [C,C] [C,C]2 [C,C]2 | F,2 D,2 C,4 | F,3 F, F,2 C,2 | %13
 D,3 D, D,2 A,,2 | B,,3 B,, B,,2 G,,2 | C,2 C,2 F,4 |] %16

